!!!OTL: DAS MAEDCHEN ICH SAH
!!!ARE: Europa, Mitteleuropa, Deutschland
!!!SCT: F0034
!!!YEM: Copyright 1995, estate of Helmut Schaffrath.
**kern
*ICvox
*Ivox
*M3/4
*k[f#c#g#]
*A:
{8cc#
=1
4cc#
8.b
16cc#
8a
8cc#
=2
4cc#
8.b
16cc#
4a}
=3
{4b
8.b
16a
8.g#
16a
=4
8b
8a
8g#
8f#
8e}
{8cc#
=5
4cc#
8.b
16cc#
8a
8cc#
=6
4cc#
8.b
16cc#
4a}
=7
{4b
8.b
16a
8.g#
16b
=8
4b
8a
8r
8r}
{8ee
=9
4ee
8.ee
16ee
8ee
8ee
=10
4dd
8.ff#
16ee
8.dd}
{16cc#
=11
8b
8cc#
8dd
8cc#
8dd
8b
=12
8cc#
8dd
8.ee
16dd
8.cc#}
{16b
=13
8a
8cc#
8cc#
8cc#
8cc#
8cc#
=14
8b
8cc#
8dd
8cc#
8b}
{8a
=15
8b
8cc#
8b
8a
8g#
8b
=16
4b
8a
8r
8r}
==
!!!AGN: Liebes - Lied, Hochzeit; Tanz - Lied
!!!ONB: ESAC (Essen Associative Code) Database: FINK
!!!AMT: simple triple
!!!AIN: vox
!!!EED: Helmut Schaffrath
!!!EEV: 1.0
*-
